!!!COM: Corelli, Arcangelo
!!!OTL: 
!!!ONM: Opus 5, No. 3
!!!OMV: 5
!!!CDT: 1653/2/17/-1713/1/8/
!!!OCY: Italia
**kern	**kern
*clefC	*clefG
*k[]	*k[]
*C:	*C:
*M4/4	*M4/4
2..r	2.r
.	6r
8r	.
.	12g
=1	=1
4c	12cc
.	12b
.	12cc
4B	12g
.	12cc
.	12b
4A	4cc
4E	6r
.	12cc
=2	=2
4F	12dd
.	12ee
.	12ff
4G	12dd
.	12gg
.	12ff
4c	4ee
4B	12r
.	12gg
.	12ff
=3	=3
4c	12ee
.	12ff
.	12gg
4B	12dd
.	12gg
.	12dd
4c	12ee
.	12gg
.	12ee
4B	12dd
.	12gg
.	12dd
=4	=4
4A	12cc
.	12ff#
.	12gg
4D	6d
.	12ff#
4G	4G
4E	12r
.	12gg
.	12ee
=5	=5
4F	12aa
.	12gg
.	12aa
2F	12a
.	12b
.	12cc
.	12g
.	12b
.	12cc
4E	12e
.	12cc
.	12b
=6	=6
4D	12f
.	12b
.	12cc
4G	12g
.	12cc
.	12b
4C	4c
[4c	12r
.	12gg
.	12ee
=7	=7
4c]	12ff
.	12dd
.	12ff
4B	12gg
.	12dd
.	12gg
4c	12ee
.	12cc
.	12ee
4r	12ee
.	12cc
.	12ee
=8	=8
4A	12ff
.	12cc
.	12ff
4r	12ff
.	12cc
.	12ff
4B	12dd
.	12b
.	12dd
4r	12dd
.	12b
.	12dd
=9	=9
4G	12ee
.	12b
.	12ee
4r	12ee
.	12b
.	12ee
4A	12cc
.	12a
.	12cc
4r	12cc
.	12a
.	12cc
=10	=10
4F	12dd
.	12a
.	12dd
4r	12dd
.	12a
.	12dd
4G	12b
.	12g
.	12b
4E	12cc
.	12e
.	12cc
=11	=11
4F	12f
.	12a
.	12dd
4F#	12d
.	12dd
.	12cc
4G	12g
.	12b
.	12ee
4G#	12e
.	12ee
.	12dd
=12	=12
4A	12a
.	12cc
.	12ff
4r	12a
.	12ff
.	12ee
4B	12b
.	12dd
.	12gg
4r	12b
.	12gg
.	12ff
=13	=13
4c	12cc
.	12ee
.	12aa
4r	12a
.	12aa
.	12gg
4d	12dd
.	12ff#
.	12gg
4e	12b
.	12gg
.	12ff#
=14	=14
4c	12cc
.	12ff#
.	12gg
4d	12dd
.	12gg
.	12ff#
2G	12gg
.	12dd
.	12cc
.	12b
.	12cc
.	12dd
=15	=15
4C	12e
.	12dd
.	12cc
4D	12f#
.	12cc
.	12dd
4E	12g
.	12a
.	12b
4BB	12g
.	12a
.	12b
=16	=16
4C	12e
.	12f#
.	12g
4D	12d
.	12g
.	12f#
4.GG	3G
.	12dd
8r	.
.	12cc
=17	=17
4G	12b
.	12cc
.	12dd
4F	12g
.	12a
.	12b
4E	12cc
.	12g
.	12e
4r	12c
.	12gg
.	12ff
=18	=18
4c	12ee
.	12ff
.	12gg
4B-	12cc
.	12dd
.	12ee
4A	12ff
.	12cc
.	12a
4r	12f
.	12aa
.	12gg
=19	=19
4d	12ff#
.	12gg
.	12aa
4c	12dd
.	12ee
.	12ff#
4B	12gg
.	12dd
.	12b
4r	12g
.	12bb
.	12aa
=20	=20
4e	12gg#
.	12aa
.	12bb
4d	12ee
.	12ff#
.	12gg#
4c	12aa
.	12ee
.	12cc
4r	12a
.	12aa
.	12gg
=21	=21
4d	12ff
.	12ee
.	12dd
4D	12cc
.	12b
.	12a
4E	12g#
.	12a
.	12b
8C	12e
.	12f
8D	.
.	12d
=22	=22
4E	12c
.	12e
.	12a
4EE	12B
.	12a
.	12g#
2AA	4A
.	12r
.	12ccc
.	12ccc
=23	=23
4A	12ee
.	12ccc
.	12ccc
4AA	12ee
.	12ccc
.	12ccc
4D	12ff#
.	12ccc
.	12ccc
4r	12ff#
.	12ccc
.	12ccc
=24	=24
4G	12gg
.	12bb
.	12bb
4GG	12gg
.	12bb
.	12bb
4C	12ee
.	12bb
.	12bb
4r	12ee
.	12bb
.	12bb
=25	=25
4F#	12ff#
.	12aa
.	12aa
4FF#	12ff#
.	12aa
.	12aa
4BB	12dd#
.	12aa
.	12aa
4r	12dd#
.	12aa
.	12aa
=26	=26
4E	12ee
.	12gg
.	12gg
4EE	12ee
.	12gg
.	12gg
4AA	12cc
.	12ff
.	12ff
4r	12cc
.	12aa
.	12aa
=27	=27
4BB	12dd#
.	12aa
.	12aa
4C	12ee
.	12gg
.	12gg
4AA	12a
.	12ee
.	12ee
4BB	12b
.	12ee
.	12dd#
=28	=28
2E	12ee
.	12ff#
.	12gg
.	12ee
.	12ff#
.	12gg
4A	12cc#
.	12gg
.	12gg
4AA	12a
.	12gg
.	12gg
=29	=29
4D	12dd
.	12ee
.	12ff
4r	12dd
.	12ee
.	12ff
4G	12b
.	12ff
.	12ff
4GG	12g
.	12ff
.	12ff
=30	=30
2C	12cc
.	12dd
.	12ee
.	12cc
.	12dd
.	12ee
2F	12a
.	12b
.	12cc
.	12dd
.	12cc
.	12dd
=31	=31
4G	12b
.	12g
.	12b
4E	12cc
.	12e
.	12cc
4F	12a
.	12f
.	12a
4r	12dd
.	12f
.	12dd
=32	=32
4G	12b
.	12g
.	12b
4r	12ee
.	12g
.	12ee
4A	12cc
.	12a
.	12cc
4r	12ff
.	12a
.	12ff
=33	=33
4B	12dd
.	12b
.	12dd
4r	12gg
.	12b
.	12gg
4c	12ee
.	12cc
.	12ee
4r	12ccc
.	12ee
.	12ccc
=34	=34
4F	12aa
.	12ff
.	12aa
4r	12ddd
.	12ff
.	12ddd
4G	12bb
.	12gg
.	12bb
4E	12ccc
.	12ee
.	12ccc
=35	=35
4F	12aa
.	12bb
.	12ccc
4G	12dd
.	12ccc
.	12bb
4C	6ccc
.	12dd
8r	4ee-
8c	.
=36	=36
4F	6r
.	12cc
8r	4dd-
8B-	.
4E-	6r
.	12b
8r	[4cc
8F	.
=37	=37
4G	12cc]
.	12dd
.	12cc
4GG	12g
.	12cc
.	12b
4C	6cc
.	12dd
8r	[4ee-
8c	.
=38	=38
4F	12dd#]
.	12dd
.	12cc
8r	3dd-
8B-	.
4E-	.
.	12cc
.	12b
8r	[4cc
8F	.
=39	=39
4G	12cc]
.	12dd
.	12cc
4GG	12g
.	12cc
.	12b
4.C	3cc
.	12r
8r	.
.	12r
==	==
*-	*-
!!!RWG: This file only contains pitch and duration data.
!!!RWG: Transposing instruments are not transposed.
!!!RWG: Durations of rests and tied notes may be interpreted.
!!!RWG: Key is interpreted using the Humdrum key tool.
!!!SCA: 
!!!YOR: 
!!!AGN: violin
!!!AFT: stage1
!!!ENC: F. Bennion
!!!END: 1997/04/15
!!!AST: baroque
!!!YEC: Copyright 1994, Center for Computer Assisted Research in the Humanities
!!!YEM: Rights to all derivative electronic formats reserved.
!!!YEM: Refer to licensing agreement for further details.
!!!YEN: United States of America
!!!EED: W.B. Hewlett
!!!KEY: 3538058511
!!!EMD: Converted from MuseData to Humdrum Aug 9, 1999, by Bret Aarden using muse2kern.
!!!VTS: 3179036822
